icons/assets/Group 582.svg

<svg width="76" height="91" viewBox="0 0 76 91" fill="none" xmlns="http://www.w3.org/2000/svg">
<rect opacity="0.5" y="58.6777" width="25" height="25" transform="rotate(-45 0 58.6777)" fill="#00A5DF"/>
<path fill-rule="evenodd" clip-rule="evenodd" d="M38.0008 30.4906C43.1068 30.4906 47.2461 26.3513 47.2461 21.2453C47.2461 16.1393 43.1068 12 38.0008 12C32.8947 12 28.7555 16.1393 28.7555 21.2453C28.7555 26.3513 32.8947 30.4906 38.0008 30.4906ZM38.0008 33.4906C44.7637 33.4906 50.2461 28.0082 50.2461 21.2453C50.2461 14.4824 44.7637 9 38.0008 9C31.2379 9 25.7555 14.4824 25.7555 21.2453C25.7555 28.0082 31.2379 33.4906 38.0008 33.4906ZM38.0008 33.4906H45.8121C51.3349 33.4906 55.8121 37.9677 55.8121 43.4906V52.7547V55.7547H52.8121H23.1895H20.1895V52.7547V43.4906C20.1895 37.9677 24.6666 33.4906 30.1895 33.4906H38.0008ZM30.1895 36.4906C26.3235 36.4906 23.1895 39.6246 23.1895 43.4906V52.7547H52.8121V43.4906C52.8121 39.6246 49.6781 36.4906 45.8121 36.4906H30.1895ZM23.1895 62.0943H26.0951V65H23.1895V62.0943ZM20.1895 59.0943H23.1895H26.0951H29.0951V62.0943V65V68H26.0951H23.1895H20.1895V65V62.0943V59.0943ZM36.5479 62.0944V65.0001H39.4536V62.0944H36.5479ZM36.5479 59.0944H33.5479V62.0944V65.0001V68.0001H36.5479H39.4536H42.4536V65.0001V62.0944V59.0944H39.4536H36.5479ZM49.9064 62.0944H52.8121V65.0001H49.9064V62.0944ZM46.9064 59.0944H49.9064H52.8121H55.8121V62.0944V65.0001V68.0001H52.8121H49.9064H46.9064V65.0001V62.0944V59.0944Z" fill="#0A3B70"/>
</svg>

<?xml version="1.0" encoding="utf-8"?>
<!-- Generator: Adobe Illustrator 26.0.1, SVG Export Plug-In . SVG Version: 6.00 Build 0)  -->
<svg version="1.1" id="Layer_1" xmlns="http://www.w3.org/2000/svg" xmlns:xlink="http://www.w3.org/1999/xlink" x="0px" y="0px"
	 viewBox="0 0 76 91" style="enable-background:new 0 0 76 91;" xml:space="preserve">
<style type="text/css">
	.st0{fill:#94D1EE;}
	.st1{fill-rule:evenodd;clip-rule:evenodd;fill:#0A3B70;}
</style>
<rect x="5.2" y="46.2" transform="matrix(0.7071 -0.7071 0.7071 0.7071 -36.3137 29.6863)" class="st0" width="25" height="25"/>
<path class="st1" d="M38,30.5c5.1,0,9.2-4.1,9.2-9.2S43.1,12,38,12c-5.1,0-9.2,4.1-9.2,9.2S32.9,30.5,38,30.5z M38,33.5
	c6.8,0,12.2-5.5,12.2-12.2S44.8,9,38,9s-12.2,5.5-12.2,12.2S31.2,33.5,38,33.5z M38,33.5h7.8c5.5,0,10,4.5,10,10v9.3v3h-3H23.2h-3
	v-3v-9.3c0-5.5,4.5-10,10-10H38z M30.2,36.5c-3.9,0-7,3.1-7,7v9.3h29.6v-9.3c0-3.9-3.1-7-7-7H30.2z M23.2,62.1h2.9V65h-2.9V62.1z
	 M20.2,59.1h3h2.9h3v3V65v3h-3h-2.9h-3v-3v-2.9V59.1z M36.5,62.1V65h2.9v-2.9H36.5z M36.5,59.1h-3v3V65v3h3h2.9h3v-3v-2.9v-3h-3
	H36.5z M49.9,62.1h2.9V65h-2.9V62.1z M46.9,59.1h3h2.9h3v3V65v3h-3h-2.9h-3v-3v-2.9V59.1z"/>
</svg>
